**kern
*part1
*staff1
*clefC1
*k[f#]
*M2/4
8r
=2
1%0r
=3
1%0r
=4
1%0r
=5
1%0r
=6
1%0r
=7
1%0r
=8
1%0r
=9
1%0r
=10
1%0r
=11
1%0r
=12
1%0r
=13
1%0r
=14
1%0r
=15
1%0r
=16
1%0r
=17
1%0r
=18
1%0r
=19
1%0r
=20
1%0r
=21
4r
8r
8dd
=22
16ccL
16bJ
16aL
16gJ
16ggL
16ff#yJ
16eeL
16ddJ
=23
16ddL
16eeJ
16aL
16ccJ
8b
8f#y
=24
16gL
16bJ
16ddL
16ggJ
16ddL
16ccJ
16ccL
16bJ
=25
8bL
8aJ
8r
=-
*-
